!!!OTL: Ach, Schatz, jetzt mu&szlig; ich wandern (3-59), S. 170
!!!id: P1032
**kern
*clefG2
*k[f#c#]
*D:
{4a
=1
4f#
4a
4f#
4a
=2
4f#
8e
8f#
4e}
=3
{8e
8f#
=4
4g
4g
8g
8a
4b
=5
2a}
4r
=6
{4a
=7
8b
8b
4g
4b
4dd
=8
4a
8f#
8a
4d}
=9
{4a
=10
8b
8b
4g
4b
4dd
=11
4a
8f#
8a
4d}
=12
{8.f#
16a
=13
8a
8g
4e
8d
8d
4c#
=14
2d}
4r
==
*-
!!!minrhy: 16
!!!meters: 4/4 ]  ZZ[5
!!!cut: Ach, Schatz, jetzt mu&szlig; ich wandern (3-59), S. 170
!!!reg: Lothringen
!!!trd: PINCK, Louis: Verklingende Weisen, Bd3, Metz 1933
!!!rhy1: X__  X__X__X__X__  X__X_X_X__   (x2)
!!!rhy2: X_X_  X__X__X_X_X__  X___0_
!!!key: P1032  16  D 4/4 ]  ZZ[5
!!!mod: HEPTATONIK IONISCH]  AMBITUS[9b
!!!kad: 25111
!!!akz: 3332_445_6651_6651_511_
!!!fot: 'a__b__c__c__d__
!!!for: 'a__b__c__c__d__
!!!fok: '\__/__^d_^d_^d_
!! PHRAS[AUFTAKTIG]
!!!fkt: Abschied, Liebe
!! LOTH VKL
!! PR[19] 2K[4] 2G[25] 3K[2] 3G[2] 4A[4] 4Ü[0] 5A[2] 6K[0] 6G[0]
!! 7K[0] 7G[0] 8A[0] MEHR[0] SI[38] ABS[53] SR[28] SP[9]
!! ST[11] 2k[8] 2g[32] 3k[0] 3g[2] 4d[2] 4ü[0] 5d[0] 6k[0] 6g[0]
!! 7k[0] 7g[0] 8d[0] mehr[0] si[43] dm[-5] sr[40] sp[4]
!! 1F[16] 2F[29] 3F[18] 4F[0] LF[0] 2P[16] 3P[0] 4P[0] TRI[0] DF[5] AB[56]
!! TF[0] U3K[0] U3[0] U4[0] U4Ü[0] U5[9] U6K[0] U6[2] U7K[0] U7[4]
!! N1[22] N2K[0] N2[26] N3K[0] N3[26] N4[6] N4Ü[0] N5[6] N6K[0] N6[0]
!!!n7k: 0] N7[0] O1[0] O2K[0] O2[0] O3K[0] O3[0] HÖ[0
!!!RNB: symbol: &szlig; = sz ligature (UTF-8: ÃŸ)
